packages/components/icons/assets/TrainOutline.svg

<svg viewBox="0 0 24 24" xmlns="http://www.w3.org/2000/svg" data-title="TrainOutline" fill="currentColor" stroke="none">
  <path d="M15.617 16.9389C15.9635 16.9216 16.2937 16.7799 16.5523 16.5377 16.8109 16.2955 16.9822 15.9675 17.0373 15.6087 17.0925 15.2499 17.0282 14.8821 16.8553 14.5671 16.6823 14.2521 16.4112 14.009 16.0875 13.8785 15.7637 13.7481 15.407 13.7382 15.0771 13.8506 14.7473 13.963 14.4644 14.1908 14.2758 14.4959 14.0873 14.8009 14.0046 15.1646 14.0417 15.526 14.0787 15.8873 14.2332 16.2243 14.4792 16.4805 14.6308 16.6315 14.8094 16.7497 15.0046 16.8284 15.1998 16.9071 15.4079 16.9446 15.617 16.9389ZM8.37638 16.9389C8.58869 16.9523 8.80128 16.9183 9.00014 16.8393 9.19899 16.7602 9.37958 16.6378 9.52998 16.4803 9.68037 16.3227 9.79719 16.1335 9.87265 15.9251 9.94811 15.7168 9.9805 15.4941 9.96774 15.2716 9.97674 15.0501 9.94176 14.8291 9.86497 14.6226 9.78819 14.416 9.67128 14.2284 9.52167 14.0717 9.37207 13.9149 9.19301 13.7925 8.99587 13.712 8.79872 13.6316 8.58776 13.5949 8.37638 13.6043 8.16672 13.5998 7.95828 13.6386 7.76301 13.7188 7.56774 13.7989 7.38951 13.9186 7.23856 14.0712 6.95227 14.3973 6.79337 14.8243 6.79337 15.2674 6.79337 15.7106 6.95227 16.1375 7.23856 16.4637 7.38886 16.6177 7.56679 16.739 7.76209 16.8206 7.95738 16.9022 8.16617 16.9424 8.37638 16.9389Z"/>
  <path d="M19.3356 3.89215C18.8564 3.33227 18.2482 2.9104 17.5692 2.66671C16.7529 2.36766 15.9018 2.18537 15.0389 2.12482C14.0921 2.04146 13.0736 1.99976 11.9994 1.99976C10.9253 1.99976 10.0182 1.99978 9.07133 2.12482C8.20342 2.18628 7.34717 2.36853 6.52515 2.66671C5.83466 2.91116 5.21184 3.32901 4.71103 3.8838C4.22291 4.48383 3.96987 5.25533 4.00286 6.04297V16.1217C3.99265 16.6123 4.07848 17.0999 4.25501 17.5544C4.43154 18.0089 4.69502 18.4207 5.02927 18.7644C5.5571 19.3335 6.25201 19.7004 7.00259 19.8065L6.50131 20.315C6.39283 20.4304 6.31402 20.5728 6.27228 20.7288C6.23053 20.8847 6.22723 21.0493 6.26261 21.207C6.29313 21.3681 6.36471 21.5174 6.46979 21.6393C6.57487 21.7611 6.70951 21.8509 6.85937 21.8989C7.02014 21.9889 7.2055 22.0183 7.3845 21.9823C7.56217 21.9424 7.72516 21.8498 7.85397 21.7155L9.64425 19.8398H14.3626L16.1609 21.7238C16.2892 21.8526 16.4488 21.942 16.6223 21.9823C16.796 22.0225 16.9778 21.9928 17.1316 21.8989C17.2825 21.8513 17.4183 21.7619 17.5248 21.6401C17.6312 21.5183 17.7043 21.3687 17.7363 21.207C17.7717 21.0493 17.7683 20.8847 17.7266 20.7288C17.6848 20.5728 17.6061 20.4304 17.4976 20.315L16.9963 19.8065C17.745 19.7018 18.4377 19.3345 18.9616 18.7644C19.2969 18.4211 19.5617 18.0096 19.7396 17.5551C19.9174 17.1006 20.0047 16.6128 19.996 16.1217V6.04297C20.0341 5.26556 19.7992 4.50042 19.3356 3.89215ZM6.66837 5.00926C7.03487 4.77994 7.43172 4.60855 7.84601 4.50069C9.21054 4.19746 10.6055 4.07151 11.9994 4.12559C13.4294 4.07604 14.8602 4.19629 16.2643 4.48406C16.6869 4.5814 17.0888 4.75944 17.4499 5.00926H6.66837ZM6.03183 10.6697V7.13504H10.9889V10.6697H6.03183ZM6.03183 12.7955H17.967V16.1301C17.9737 16.341 17.9389 16.5512 17.8649 16.7476C17.7909 16.9439 17.6792 17.1222 17.5367 17.2714C17.3942 17.4207 17.224 17.5377 17.0366 17.6153C16.8492 17.6929 16.6487 17.7293 16.4473 17.7224H7.55161C7.35054 17.7281 7.15045 17.6908 6.96359 17.6129C6.77673 17.5349 6.60701 17.4178 6.46479 17.2687C6.32256 17.1197 6.21078 16.9419 6.13635 16.7461C6.06191 16.5504 6.02635 16.3407 6.03183 16.1301V12.7955ZM13.0179 10.6697V7.13504H17.967V10.6697H13.0179Z"/>
</svg>

<svg viewBox="0 0 24 24" xmlns="http://www.w3.org/2000/svg" data-title="TrainOutline" fill="currentColor" stroke="none">
  <path d="m15.62,16.94c.35-.02.68-.16.94-.4.26-.24.43-.57.49-.93.06-.36,0-.73-.18-1.04-.17-.31-.44-.56-.77-.69-.32-.13-.68-.14-1.01-.03-.33.11-.61.34-.8.65-.19.31-.27.67-.23,1.03.04.36.19.7.44.95.15.15.33.27.53.35.2.08.4.12.61.11Zm-7.24,0c.21.01.42-.02.62-.1.2-.08.38-.2.53-.36.15-.16.27-.35.34-.56.08-.21.11-.43.1-.65,0-.22-.03-.44-.1-.65-.08-.21-.19-.39-.34-.55-.15-.16-.33-.28-.53-.36-.2-.08-.41-.12-.62-.11-.21,0-.42.03-.61.11-.2.08-.37.2-.52.35-.29.33-.45.75-.45,1.2s.16.87.45,1.2c.15.15.33.28.52.36.2.08.4.12.61.12Z"/>
  <path d="m19.34,3.89c-.48-.56-1.09-.98-1.77-1.23-.82-.3-1.67-.48-2.53-.54-.95-.08-1.97-.13-3.04-.13s-1.98,0-2.93.13c-.87.06-1.72.24-2.55.54-.69.24-1.31.66-1.81,1.22-.49.6-.74,1.37-.71,2.16v10.08c-.01.49.08.98.25,1.43.18.45.44.87.77,1.21.53.57,1.22.94,1.97,1.04l-.5.51c-.11.12-.19.26-.23.41-.04.16-.05.32,0,.48.03.16.1.31.21.43.11.12.24.21.39.26.16.09.35.12.53.08.18-.04.34-.13.47-.27l1.79-1.88h4.72l1.8,1.88c.13.13.29.22.46.26.17.04.36.01.51-.08.15-.05.29-.14.39-.26.11-.12.18-.27.21-.43.04-.16.03-.32,0-.48-.04-.16-.12-.3-.23-.41l-.5-.51c.75-.1,1.44-.47,1.97-1.04.34-.34.6-.75.78-1.21.18-.45.27-.94.26-1.43V6.04c.04-.78-.2-1.54-.66-2.15Zm-12.67,1.12c.37-.23.76-.4,1.18-.51,1.36-.3,2.76-.43,4.15-.38,1.43-.05,2.86.07,4.26.36.42.1.82.28,1.19.53H6.67Zm-.64,5.66v-3.53h4.96v3.53h-4.96Zm0,2.13h11.94v3.33c0,.21-.03.42-.1.62-.07.2-.19.37-.33.52-.14.15-.31.27-.5.34-.19.08-.39.11-.59.11H7.55c-.2,0-.4-.03-.59-.11-.19-.08-.36-.2-.5-.34-.14-.15-.25-.33-.33-.52-.07-.2-.11-.41-.1-.62v-3.33Zm6.99-2.13v-3.53h4.95v3.53h-4.95Z"/>
</svg>
